src/pos-icons/monitor-speaker.svg

<svg height="24" viewBox="0 0 24 24" width="24" xmlns="http://www.w3.org/2000/svg"><path d="m10 20v-2h-7c-1.1 0-2-.9-2-2v-12c0-1.11.89-2 2-2h18c1.1 0 2 .89 2 2v4h-2v-4h-18v12h9v6h-4v-2zm8.5-5c-1.38 0-2.5 1.12-2.5 2.5s1.12 2.5 2.5 2.5 2.5-1.12 2.5-2.5-1.12-2.5-2.5-2.5m4.5-5v11c0 .55-.45 1-1 1h-7c-.55 0-1-.45-1-1v-11c0-.55.45-1 1-1h7c.55 0 1 .45 1 1m-6 1.5c0 .83.67 1.5 1.5 1.5s1.5-.67 1.5-1.5-.67-1.5-1.5-1.5-1.5.67-1.5 1.5m5 6c0-1.93-1.57-3.5-3.5-3.5s-3.5 1.57-3.5 3.5 1.57 3.5 3.5 3.5 3.5-1.57 3.5-3.5z"/></svg>

<?xml version="1.0" encoding="UTF-8"?><!DOCTYPE svg PUBLIC "-//W3C//DTD SVG 1.1//EN" "http://www.w3.org/Graphics/SVG/1.1/DTD/svg11.dtd"><svg xmlns="http://www.w3.org/2000/svg" xmlns:xlink="http://www.w3.org/1999/xlink" version="1.1" id="mdi-monitor-speaker" width="24" height="24" viewBox="0 0 24 24"><path d="M10 20V18H3C1.9 18 1 17.1 1 16V4C1 2.89 1.89 2 3 2H21C22.1 2 23 2.89 23 4V8H21V4H3V16H12V22H8V20H10M18.5 15C17.12 15 16 16.12 16 17.5S17.12 20 18.5 20 21 18.88 21 17.5 19.88 15 18.5 15M23 10V21C23 21.55 22.55 22 22 22H15C14.45 22 14 21.55 14 21V10C14 9.45 14.45 9 15 9H22C22.55 9 23 9.45 23 10M17 11.5C17 12.33 17.67 13 18.5 13S20 12.33 20 11.5 19.33 10 18.5 10 17 10.67 17 11.5M22 17.5C22 15.57 20.43 14 18.5 14S15 15.57 15 17.5 16.57 21 18.5 21 22 19.43 22 17.5Z" /></svg>
